Sources/FrostedUI/Resources/Icons.xcassets/chevronLeftToLineInBox12.imageset/chevron-left-to-line-in-box-12.svg

<svg width="12" height="12" viewBox="0 0 12 12" fill="none" xmlns="http://www.w3.org/2000/svg" data-fui-icon="true">
  <path
    d="M8.25 0C10.3211 0 12 1.67893 12 3.75V8.25C12 10.3211 10.3211 12 8.25 12H3.75C1.67893 12 0 10.3211 0 8.25V3.75C1.28853e-07 1.67893 1.67893 1.28851e-07 3.75 0H8.25ZM3.75 1.5C2.50736 1.5 1.5 2.50736 1.5 3.75V8.25C1.5 9.49264 2.50736 10.5 3.75 10.5H8.25C9.49264 10.5 10.5 9.49264 10.5 8.25V3.75C10.5 2.50736 9.49264 1.5 8.25 1.5H3.75ZM3.75 3C4.16421 3 4.5 3.33579 4.5 3.75V8.25C4.49995 8.66417 4.16418 9 3.75 9C3.33582 9 3.00005 8.66417 3 8.25V3.75C3 3.33579 3.33579 3 3.75 3ZM7.68945 3.25195C7.96461 2.94241 8.43846 2.91438 8.74805 3.18945C9.05759 3.46461 9.08562 3.93846 8.81055 4.24805L7.25293 6L8.81055 7.75195C9.08556 8.06154 9.05757 8.53541 8.74805 8.81055C8.43846 9.08557 7.96459 9.05757 7.68945 8.74805L5.68945 6.49805C5.43699 6.21393 5.43702 5.78609 5.68945 5.50195L7.68945 3.25195Z"
    fill="currentColor"
  />
</svg>

<svg xmlns="http://www.w3.org/2000/svg" width="12" height="12" fill="none" data-fui-icon="true" viewBox="0 0 12 12"><path fill="currentColor" d="M8.25 0A3.75 3.75 0 0 1 12 3.75v4.5A3.75 3.75 0 0 1 8.25 12h-4.5A3.75 3.75 0 0 1 0 8.25v-4.5A3.75 3.75 0 0 1 3.75 0zm-4.5 1.5A2.25 2.25 0 0 0 1.5 3.75v4.5a2.25 2.25 0 0 0 2.25 2.25h4.5a2.25 2.25 0 0 0 2.25-2.25v-4.5A2.25 2.25 0 0 0 8.25 1.5zm0 1.5a.75.75 0 0 1 .75.75v4.5a.75.75 0 0 1-1.5 0v-4.5A.75.75 0 0 1 3.75 3m3.94.252a.75.75 0 0 1 1.12.996L7.254 6 8.81 7.752a.75.75 0 0 1-1.122.996l-2-2.25a.75.75 0 0 1 0-.996z"/></svg>
